X: 9443
T: Dans Fisel
R: reel
M: 4/4
K: Dmajor
|:A2 d2|de fg ag fe|de d2 A2 d2|de fg ag fe|de d2 A2 d2|
de fg ef ga|gf ef ed Bc|de fg fe dc|AB d2 A2 d2|
de fg ef ga|gf ef ed Bc|de fg fe dc|AB d2 A2 d2:|
|:fg aa fg az|ag ef gf ez|fg aa fg az|ag ef gg ez|
de ee dc Bz|ef gf ee dz|d2 ee dc Bz|ef gf ee dz:|

